src/16/actions/view-left-close.svg

<svg xmlns="http://www.w3.org/2000/svg" viewBox="0 0 16 16">
  <defs id="defs3051">
    <style type="text/css" id="current-color-scheme">
      .ColorScheme-Text {
        color:#5d656b;
      }
      .ColorScheme-NegativeText {
        color:#da4453;
      }
      </style>
  </defs>
  <g
     transform="translate(-421.71429,-531.79074)">
    <path
       style="fill:currentColor;fill-opacity:1;stroke:none" 
       d="M 2 2 L 2 14 L 14 14 L 14 2 L 2 2 z M 3 4 L 9 4 L 9 13 L 3 13 L 3 4 z M 10 4 L 13 4 L 13 13 L 10 13 L 10 4 z "
       transform="translate(421.71429,531.79074)"
     class="ColorScheme-Text"
       id="rect4272" />
    <path
        style="fill:currentColor;fill-opacity:1;stroke:none" 
     class="ColorScheme-NegativeText"
    d="m 425.95691,537.79079 -0.70703,0.70703 1.79296,1.79297 -1.79296,1.79297 0.70703,0.70703 1.79297,-1.79296 1.79297,1.79296 0.70703,-0.70703 -1.79296,-1.79297 1.79296,-1.79297 -0.70703,-0.70703 -1.79297,1.79296 -1.79297,-1.79296 z"
       id="rect4153" />
  </g>
</svg>

<svg xmlns="http://www.w3.org/2000/svg" viewBox="0 0 16 16"><g fill="currentColor"><path d="M2 2v12h12V2H2zm1 2h6v9H3V4zm7 0h3v9h-3V4z" color="#5d656b"/><path d="M4.243 6l-.707.707L5.329 8.5l-1.793 1.793.707.707 1.793-1.793L7.829 11l.707-.707L6.743 8.5l1.793-1.793L7.829 6 6.036 7.793 4.243 6z" color="#da4453"/></g></svg>
